X: 1
T: Johnny Allen's
R: reel
M: 4/4
L: 1/8
K: Dmix
FG | A3B AGFG | AccB c2Bc | A3B AGFE | DGGF G2FG |
A3B AGFG | Adde f3g | afge fded | dcAF G2 :|
FG | A3g fded | Add^c dAFG | A3g fded | dcAF G2FG |
A3g fded | Add^c defg | afge fded | dcAF G2 :|


Tune 278	Setting 4944

